svgs/iconrequest.svg

<svg xmlns="http://www.w3.org/2000/svg" viewBox="0 0 192 192"><path d="M166.222 84.696c2.167-.089 4.304.421 5.995 1.43 1.692 1.009 2.823 2.447 3.173 4.037l.11 26.703c0 10.292-3.65 20.405-10.583 29.318-6.932 8.914-16.905 16.317-28.912 21.463-16.125 6.917-35.04 9.379-53.373 6.947-18.334-2.431-34.93-9.603-46.832-20.237-11.901-10.634-18.357-24.059-18.218-37.884v-26.31c-.189-.98.034-1.981.638-2.864.605-.884 1.561-1.608 2.739-2.073 1.178-.466 2.521-.651 3.846-.53" fill="none" stroke="#000" stroke-width="8" stroke-linecap="round" stroke-linejoin="round"/><path d="M134.558 126.201c-.228 4.034-1.999 7.938-5.104 11.254-3.106 3.315-7.419 5.907-12.435 7.47-5.489 1.908-11.476 2.897-17.537 2.897-6.061 0-12.048-.989-17.537-2.897" fill="none" stroke="#000" stroke-width="8" stroke-linecap="round" stroke-linejoin="round"/><path d="m110.053 125.85 18.092 23.808 1.277 9.822-10.344-5.534-16.649-22.23m-10.391-.262L75.51 153.522l-10.353 6.345.855-10.293 18.46-23.887" fill="none" stroke="#000" stroke-width="8" stroke-linecap="round" stroke-linejoin="round"/><path d="M90.813 96.572h12.381v8.023h4.5a8.824 8.824 0 0 1 3.466.72c1.05.462 1.918 1.121 2.514 1.912.597.79.902 1.684.885 2.59v12.564l-12.298 9.466c-.838.65-1.898 1.12-3.067 1.36a8.992 8.992 0 0 1-3.573 0c-1.169-.24-2.229-.71-3.067-1.36l-12.961-9.879v-12.151c-.017-.906.288-1.8.885-2.59.596-.791 1.464-1.45 2.513-1.912a8.826 8.826 0 0 1 3.467-.72h4.354ZM24.805 84.696H166.22c2.166-.041 4.227-.709 5.74-1.861 1.513-1.151 2.362-2.697 2.364-4.305v-7.749c-.166-10.869-5.377-21.37-14.749-29.722l11.064-8.123c2.366-1.819 3.689-4.251 3.689-6.779 0-2.528-1.323-4.96-3.689-6.779-1.591-1.217-3.593-2.094-5.797-2.539a17.042 17.042 0 0 0-6.731.008c-2.201.451-4.2 1.333-5.785 2.553l-11.024 8.123c-29.915-14.138-60.424-15.211-91.901 0l-10.617-8c-1.571-1.243-3.571-2.143-5.782-2.602a16.806 16.806 0 0 0-6.761-.005c-2.212.457-4.214 1.354-5.788 2.595-7.875 5.073-1.201 12.686-.023 13.547l11.022 8.062C21.871 49.368 16.567 59.891 16.5 70.782v7.748c0 1.083.384 2.146 1.113 3.084.729.937 1.777 1.716 3.04 2.257 1.263.541 2.696.826 4.154.825" fill="none" stroke="#000" stroke-width="8" stroke-linecap="round" stroke-linejoin="round"/><path d="M58.928 52.704c-3.134 0-6.143.926-8.359 2.571s-3.462 3.878-3.462 6.205 1.246 4.56 3.462 6.205c2.216 1.645 5.225 2.571 8.359 2.571 3.135 0 6.144-.926 8.36-2.571 2.216-1.645 3.462-3.878 3.462-6.205s-1.246-4.56-3.462-6.205c-2.216-1.645-5.225-2.571-8.36-2.571Zm73.368 0c-3.134 0-6.143.926-8.36 2.571-2.216 1.645-3.462 3.878-3.462 6.205s1.246 4.56 3.462 6.205c2.217 1.645 5.226 2.571 8.36 2.571 3.134 0 6.143-.926 8.359-2.571s3.462-3.878 3.462-6.205-1.246-4.56-3.462-6.205c-2.216-1.645-5.225-2.571-8.359-2.571Z" fill="none" stroke="#000" stroke-width="8" stroke-linecap="round" stroke-linejoin="round"/></svg>

<svg
    xmlns="http://www.w3.org/2000/svg"
    viewBox="0 0 192 192"
    id="vector">
    <path
        id="path"
        d="M 166.222 84.696 C 168.389 84.607 170.526 85.117 172.217 86.126 C 173.909 87.135 175.04 88.573 175.39 90.163 L 175.5 116.866 C 175.5 127.158 171.85 137.271 164.917 146.184 C 157.985 155.098 148.012 162.501 136.005 167.647 C 119.88 174.564 100.965 177.026 82.632 174.594 C 64.298 172.163 47.702 164.991 35.8 154.357 C 23.899 143.723 17.443 130.298 17.582 116.473 L 17.582 90.163 C 17.393 89.183 17.616 88.182 18.22 87.299 C 18.825 86.415 19.781 85.691 20.959 85.226 C 22.137 84.76 23.48 84.575 24.805 84.696"
        fill="none"
        stroke="#000000"
        stroke-width="8"
        stroke-linecap="round"
        stroke-linejoin="round"/>
    <path
        id="path_1"
        d="M 134.558 126.201 C 134.33 130.235 132.559 134.139 129.454 137.455 C 126.348 140.77 122.035 143.362 117.019 144.925 C 111.53 146.833 105.543 147.822 99.482 147.822 C 93.421 147.822 87.434 146.833 81.945 144.925"
        fill="none"
        stroke="#000000"
        stroke-width="8"
        stroke-linecap="round"
        stroke-linejoin="round"/>
    <path
        id="path_2"
        d="M 110.053 125.85 L 128.145 149.658 L 129.422 159.48 L 119.078 153.946 L 102.429 131.716 M 92.038 131.454 L 75.51 153.522 L 65.157 159.867 L 66.012 149.574 L 84.472 125.687"
        fill="none"
        stroke="#000000"
        stroke-width="8"
        stroke-linecap="round"
        stroke-linejoin="round"/>
    <path
        id="path_3"
        d="M 90.813 96.572 L 103.194 96.572 L 103.194 104.595 L 107.694 104.595 C 108.914 104.604 110.11 104.853 111.16 105.315 C 112.21 105.777 113.078 106.436 113.674 107.227 C 114.271 108.017 114.576 108.911 114.559 109.817 L 114.559 122.381 L 102.261 131.847 C 101.423 132.497 100.363 132.967 99.194 133.207 C 98.025 133.446 96.79 133.446 95.621 133.207 C 94.452 132.967 93.392 132.497 92.554 131.847 L 79.593 121.968 L 79.593 109.817 C 79.576 108.911 79.881 108.017 80.478 107.227 C 81.074 106.436 81.942 105.777 82.991 105.315 C 84.041 104.853 85.237 104.604 86.458 104.595 L 90.812 104.595 Z M 24.805 84.696 L 166.22 84.696 C 168.386 84.655 170.447 83.987 171.96 82.835 C 173.473 81.684 174.322 80.138 174.324 78.53 L 174.324 70.781 C 174.158 59.912 168.947 49.411 159.575 41.059 L 170.639 32.936 C 173.005 31.117 174.328 28.685 174.328 26.157 C 174.328 23.629 173.005 21.197 170.639 19.378 C 169.048 18.161 167.046 17.284 164.842 16.839 C 162.638 16.394 160.313 16.397 158.111 16.847 C 155.91 17.298 153.911 18.18 152.326 19.4 L 141.302 27.523 C 111.387 13.385 80.878 12.312 49.401 27.523 L 38.784 19.523 C 37.213 18.28 35.213 17.38 33.002 16.921 C 30.792 16.461 28.453 16.46 26.241 16.916 C 24.029 17.373 22.027 18.27 20.453 19.511 C 12.578 24.584 19.252 32.197 20.43 33.058 L 31.452 41.12 C 21.871 49.368 16.567 59.891 16.5 70.782 L 16.5 78.53 C 16.5 79.613 16.884 80.676 17.613 81.614 C 18.342 82.551 19.39 83.33 20.653 83.871 C 21.916 84.412 23.349 84.697 24.807 84.696"
        fill="none"
        stroke="#000000"
        stroke-width="8"
        stroke-linecap="round"
        stroke-linejoin="round"/>
    <path
        id="path_4"
        d="M 58.928 52.704 C 55.794 52.704 52.785 53.63 50.569 55.275 C 48.353 56.92 47.107 59.153 47.107 61.48 C 47.107 63.807 48.353 66.04 50.569 67.685 C 52.785 69.33 55.794 70.256 58.928 70.256 C 62.063 70.256 65.072 69.33 67.288 67.685 C 69.504 66.04 70.75 63.807 70.75 61.48 C 70.75 59.153 69.504 56.92 67.288 55.275 C 65.072 53.63 62.063 52.704 58.928 52.704 Z M 132.296 52.704 C 129.162 52.704 126.153 53.63 123.936 55.275 C 121.72 56.92 120.474 59.153 120.474 61.48 C 120.474 63.807 121.72 66.04 123.936 67.685 C 126.153 69.33 129.162 70.256 132.296 70.256 C 135.43 70.256 138.439 69.33 140.655 67.685 C 142.871 66.04 144.117 63.807 144.117 61.48 C 144.117 59.153 142.871 56.92 140.655 55.275 C 138.439 53.63 135.43 52.704 132.296 52.704 Z"
        fill="none"
        stroke="#000000"
        stroke-width="8"
        stroke-linecap="round"
        stroke-linejoin="round"/>
</svg>
